X: 1
T:Earl's Chair, The
N:compromise version of B part. Transcribed by Alan Ng
R:reel
M:C|
K:D
e2 ef dB B2|edef d2 Bd|e2 ef dB B2|fedB ADBd|\
e2 ef dB B2|af f2 defg|afbf afeg | fedB A2:|
